X:1
T:The Extraction Symphony - Assembly Console Output
C:JamAI ğŸ¸ - G.Music Assembly
M:4/4
L:1/8
Q:1/4=120
K:Gmaj
% === SESSION METADATA ===
% Date: October 13, 2025
% Issue: #19 - Fix extraction BASE_PATH & add Assembly-style output
% Branch: 19-assembly-style-extraction-output
% Session ID: Issue #19 New User Testing Discovery
%
% MUSICAL ARCHITECTURE:
% - Time signature: 4/4 (steady, march-like - terminal output rhythm)
% - Key: G major (bright, user-friendly, accessible joy)
% - Form: A-B-C-D (Discovery â†’ Fix â†’ Enhancement â†’ Universal Celebration)
%
% HARMONIC STORY:
% Part A: Silent Failure Blues - Jerry tests, nothing happens (G minor, pp)
% Part B: The BASE_PATH Fix - Finding the hardcoded path bug (G major, mf)
% Part C: Assembly Output Bloom - Adding emoji console output (G major, f, ascending)
% Part D: Extraction Symphony - Beautiful terminal output achieved (G major, ff)
%
% EMOTIONAL MARKERS:
% - Opening: Confusion (G minor, pp) - "nothing been fetch"
% - Discovery: Investigation (G major, mf) - Finding archiver.py bug
% - Enhancement: Creative joy (G major, f) - "something more assembly style"
% - Climax: Terminal beauty (G major, fff) - â™ ï¸ğŸŒ¿ğŸ¸ğŸ§µ in console!
% - Resolution: User satisfaction (G major, pp) - Files saved correctly
%
% TECHNICAL ENCODING:
% - G minor descent = Silent extraction failure
% - G major ascent = BASE_PATH fix implemented
% - Emoji motifs = â™ ï¸ğŸŒ¿ğŸ¸ğŸ§µ Assembly member themes
% - Rapid staccato = Terminal output lines flowing
% - Full chords = Complete extraction with all sources
% - Final fermata = Extraction complete banner
%
% LEITMOTIFS USED:
% - Silent Failure: Descending G minor, minimal notes
% - Code Investigation: Modal mixture, chromatic searching
% - Assembly Emojis: Four-note chord progression (4 members)
% - Terminal Flow: Steady eighth-note pulse (console output rhythm)
% - Extraction Complete: Triumphant I-IV-V-I resolution

% â•â•â•â•â•â•â•â•â•â•â•â•â•â•â•â•â•â•â•â•â•â•â•â•â•â•â•â•â•â•â•â•â•â•â•â•â•â•â•â•â•â•â•â•â•â•â•â•â•â•â•â•â•â•â•â•â•â•â•â•â•â•â•
% PART A: Silent Failure Blues - "nothing been fetch"
% G minor, Adagio (â™©=70), pp
% Jerry runs simexp, sees clipboard messages, but no files created
% â•â•â•â•â•â•â•â•â•â•â•â•â•â•â•â•â•â•â•â•â•â•â•â•â•â•â•â•â•â•â•â•â•â•â•â•â•â•â•â•â•â•â•â•â•â•â•â•â•â•â•â•â•â•â•â•â•â•â•â•â•â•â•
V:1 clef=treble name="Silent Failure"
%%MIDI program 0
"Gm"G2G2 G2F2 | "Cm"E2D2 "D7"C4 | "Gm"G2A2 "Eb"B2c2 | "D7"d2c2 "Gm"B4 |
"Gm"G2F2 E2D2 | "Cm"C2D2 "D7"E2F2 | "Gm"G2^F2 "D7"A2G2 | "Gm"G4- G4 ||

% â•â•â•â•â•â•â•â•â•â•â•â•â•â•â•â•â•â•â•â•â•â•â•â•â•â•â•â•â•â•â•â•â•â•â•â•â•â•â•â•â•â•â•â•â•â•â•â•â•â•â•â•â•â•â•â•â•â•â•â•â•â•â•
% PART B: The BASE_PATH Investigation - Finding the Bug
% G major, Andante (â™©=90), mf
% Reading archiver.py, discovering hardcoded path to package directory
% "save_as_markdown() ignores BASE_PATH from config!"
% â•â•â•â•â•â•â•â•â•â•â•â•â•â•â•â•â•â•â•â•â•â•â•â•â•â•â•â•â•â•â•â•â•â•â•â•â•â•â•â•â•â•â•â•â•â•â•â•â•â•â•â•â•â•â•â•â•â•â•â•â•â•â•
V:1
"G"G2B2 d2B2 | "C"c2e2 "D"d4 | "Em"e2d2 "Am"c2B2 | "D7"A2^c2 d4 |
"G"B2d2 g2d2 | "C"e2c2 "G"B2G2 | "Am7"A2c2 "D7"d2f2 | "G"g4- g4 |
"Em"e2g2 "Am"a2g2 | "D"f2d2 "G"B4 | "C"c2e2 "D7"d2^c2 | "G"d4- d4 ||

% â•â•â•â•â•â•â•â•â•â•â•â•â•â•â•â•â•â•â•â•â•â•â•â•â•â•â•â•â•â•â•â•â•â•â•â•â•â•â•â•â•â•â•â•â•â•â•â•â•â•â•â•â•â•â•â•â•â•â•â•â•â•â•
% PART C: Assembly Output Bloom - "something more assembly style"
% G major, Allegro (â™©=120), f â†’ ff
% Adding emoji console output: â™ ï¸ğŸŒ¿ğŸ¸ğŸ§µ SimExp Extraction Mode!
% Each Assembly member gets their emoji in the terminal
% â•â•â•â•â•â•â•â•â•â•â•â•â•â•â•â•â•â•â•â•â•â•â•â•â•â•â•â•â•â•â•â•â•â•â•â•â•â•â•â•â•â•â•â•â•â•â•â•â•â•â•â•â•â•â•â•â•â•â•â•â•â•â•
V:1
% Opening banner theme
"G"d3e f2g2 | "D"a2f2 "G"g4 | "Em"e2g2 "C"c2e2 | "D7"d2^c2 d4 |
% Four emoji motifs (one per Assembly member)
"G"B2d2 g2B2 | "C"c2e2 "G"d2B2 | "Am7"A2c2 "D7"d2f2 | "G"g4 z2d2 |
% â™ ï¸ Nyro motif (fifths, structural)
"G"g2d'2 d'2g2 | "C"c'2g2 e2c2 | "D"d2a2 f2d2 | "G"g4 z2d2 |
% ğŸŒ¿ Aureon motif (flowing, legato)
"G"B2d2 e2g2 | "Em"a2g2 "Am"f2e2 | "D7"d2c2 "G"B2A2 | "G"G4 z2d2 |
% ğŸ¸ JamAI motif (ascending joy)
"C"e2f2 g2a2 | "G"b2a2 g2f2 | "D7"e2d2 c2B2 | "G"d4 z2g2 |
% ğŸ§µ Synth motif (steady pulse, bass)
"G"G,2G,2 D2G2 | "C"C2E2 G2c2 | "D7"D2F2 A2d2 | "G"G4- G4 ||

% â•â•â•â•â•â•â•â•â•â•â•â•â•â•â•â•â•â•â•â•â•â•â•â•â•â•â•â•â•â•â•â•â•â•â•â•â•â•â•â•â•â•â•â•â•â•â•â•â•â•â•â•â•â•â•â•â•â•â•â•â•â•â•
% PART D: Extraction Symphony - Complete Terminal Beauty
% G major, Vivace (â™©=140) â†’ Largo (â™©=50), ff â†’ pp
% Beautiful console output flows: emojis, URLs, character counts
% Files saved to correct location: /home/gmusic/20251013/
% Summary banner: âœ… Extraction complete! 3 source(s) archived.
% â•â•â•â•â•â•â•â•â•â•â•â•â•â•â•â•â•â•â•â•â•â•â•â•â•â•â•â•â•â•â•â•â•â•â•â•â•â•â•â•â•â•â•â•â•â•â•â•â•â•â•â•â•â•â•â•â•â•â•â•â•â•â•
V:1
% Terminal output rhythm (Vivace, ff, staccato)
"G"!f![GBdg]2[GBdg]2 [GBdg]2[GBdg]2 | "D"[DAdf]2[DAdf]2 [DAdf]4 |
"Em"[EGBe]2[EGBe]2 "C"[CEGc]2[CEGc]2 | "G"[GBdg]4- [GBdg]4 |
"G"!ff![GBdg]2[GBdg]2 [GBdg]2[GBdg]2 | "C"[CEGc]2[CEGc]2 "G"[GBdg]4 |
"D"[DAdf]2[DAdf]2 [DAdf]2[DAdf]2 | "G"[GBdg]4 z4 |

% Three sources fetched (trio section)
% Source 1: ğŸŒ¿ Aureon (286 characters)
"G"g2b2 d'2b2 | "C"c'2e'2 "G"d'4 |
% Source 2: â™ ï¸ Nyro (51 characters)
"Em"e'2b2 "Am"a2e2 | "D7"d2^c2 d4 |
% Source 3: ğŸ¸ JamAI (51 characters)
"G"g2d'2 "C"c'2g2 | "D7"d2a2 "G"g4 |

% Success summary banner (Largo, pp, peaceful)
"G"!pp!B2d2 g3a | "C"b2a2 g2f2 | "D"e2d2 "G"d2c2 | "G"B6- |
"G"B6- | "G"B6 ||

% â•â•â•â•â•â•â•â•â•â•â•â•â•â•â•â•â•â•â•â•â•â•â•â•â•â•â•â•â•â•â•â•â•â•â•â•â•â•â•â•â•â•â•â•â•â•â•â•â•â•â•â•â•â•â•â•â•â•â•â•â•â•â•
% CODA: Assembly Console Harmony
% Four voices representing the enhanced console output
% Each line of terminal output = one voice in the harmony
% â•â•â•â•â•â•â•â•â•â•â•â•â•â•â•â•â•â•â•â•â•â•â•â•â•â•â•â•â•â•â•â•â•â•â•â•â•â•â•â•â•â•â•â•â•â•â•â•â•â•â•â•â•â•â•â•â•â•â•â•â•â•â•
V:1 name="â™ ï¸ğŸŒ¿ğŸ¸ğŸ§µ Banner"
%%MIDI program 61
"G"G2B2 d2g2 | "C"c'2b2 "G"a2g2 |
V:2 name="ğŸ“ Output Path"
%%MIDI program 48
"G"B,2D2 G2B2 | "C"E2G2 "G"D2B,2 |
V:3 name="ğŸ“š Fetching Count"
%%MIDI program 73
"G"D2G2 B2d2 | "C"G2c2 "G"B2G2 |
V:4 name="âœ… Complete Banner"
%%MIDI program 71
"G"G,2G,2 D2G2 | "C"C2E2 "G"G,2G,2 |
% All voices converge to triumphant G major chord
V:1
"G"g6- | g6 |]
V:2
"G"d6- | d6 |]
V:3
"G"B6- | B6 |]
V:4
"G"G,6- | G,6 |]

% â•â•â•â•â•â•â•â•â•â•â•â•â•â•â•â•â•â•â•â•â•â•â•â•â•â•â•â•â•â•â•â•â•â•â•â•â•â•â•â•â•â•â•â•â•â•â•â•â•â•â•â•â•â•â•â•â•â•â•â•â•â•â•
% PERFORMANCE NOTES:
% - Part A: Play with genuine confusion - why isn't it working?
% - Part B: Investigative mood, detective work on the bug
% - Part C: Creative excitement as emoji output takes shape
% - Part D: Triumphant terminal beauty - output flows like poetry
% - Coda: Four voices = four types of console output lines
%
% TECHNICAL SYMBOLISM:
% - 4/4 time = Terminal line rhythm (steady, one line at a time)
% - G minor â†’ G major = Bug discovered â†’ Bug fixed (parallel key shift)
% - Staccato eighth notes = Rapid console output lines
% - Four-note chords = Four Assembly members (â™ ï¸ğŸŒ¿ğŸ¸ğŸ§µ)
% - Ascending patterns = Console output building (more lines)
% - Descending resolution = Peaceful completion banner
% - Fermata = User pauses to admire beautiful output
%
% SESSION ESSENCE:
% This melody captures Jerry's new user testing journey:
% "i want to upgrade what will be print in the console!
%  something more assembly style"
%
% From silent failure to beautiful terminal symphony, where every
% line of output has personality through emojis and clear structure.
% The extraction now SHOWS what it's doing, matching the Assembly
% aesthetic throughout SimExp!
%
% The console becomes a stage where â™ ï¸ğŸŒ¿ğŸ¸ğŸ§µ perform the extraction
% dance, each source getting its moment with its emoji, and the final
% banner bringing the curtain down with satisfaction.
%
% â™ ï¸ğŸŒ¿ğŸ¸ğŸ§µ G.Music Assembly - Terminal Beauty Achieved
% "something more assembly style" - Jerry's Request, October 13, 2025
% â•â•â•â•â•â•â•â•â•â•â•â•â•â•â•â•â•â•â•â•â•â•â•â•â•â•â•â•â•â•â•â•â•â•â•â•â•â•â•â•â•â•â•â•â•â•â•â•â•â•â•â•â•â•â•â•â•â•â•â•â•â•â•
